svgs/light/motorcycle.svg

<svg xmlns="http://www.w3.org/2000/svg" viewBox="0 0 640 512"><!--! Font Awesome Pro 6.4.0 by @fontawesome - https://fontawesome.com License - https://fontawesome.com/license (Commercial License) Copyright 2023 Fonticons, Inc. --><path d="M411.8 96H480V64H453.4L411.8 96zM488 128H412.2L467 232.1c14-5.3 29.2-8.1 45-8.1c70.7 0 128 57.3 128 128s-57.3 128-128 128s-128-57.3-128-128c0-43.4 21.6-81.8 54.7-104.9l-15-28.5C380.5 247.2 352 296.3 352 352v16c0 8.8-7.2 16-16 16H304c-8.8 0-16-7.2-16-16v-8c0-92.8-75.2-168-168-168H48c-8.8 0-16-7.2-16-16s7.2-16 16-16h72c41.4 0 79.9 12.6 111.8 34.1l127.4-98L342.3 64H272c-8.8 0-16-7.2-16-16s7.2-16 16-16h70.3c11.9 0 22.8 6.6 28.3 17.1L385 76.3 436.1 37c4.2-3.2 9.3-5 14.6-5H488c13.3 0 24 10.7 24 24v48c0 13.3-10.7 24-24 24zM257.5 214.7c36.7 34.7 60.2 83.3 62.4 137.3h.2c0-68 35.4-127.8 88.7-161.9l-34.4-65.3L257.5 214.7zM497.8 359.5l-44.1-83.8c-23 17.5-37.8 45.2-37.8 76.3c0 53 43 96 96 96s96-43 96-96s-43-96-96-96c-10.5 0-20.5 1.7-29.9 4.8l44.1 83.8c4.1 7.8 1.1 17.5-6.7 21.6s-17.5 1.1-21.6-6.7zM128 256c-53 0-96 43-96 96s43 96 96 96c47.6 0 87.1-34.6 94.7-80h-67c-5.5 9.6-15.9 16-27.7 16c-17.7 0-32-14.3-32-32s14.3-32 32-32c11.8 0 22.2 6.4 27.7 16h67c-7.6-45.4-47.1-80-94.7-80zM0 352a128 128 0 1 1 256 0A128 128 0 1 1 0 352z"/></svg>

<svg xmlns="http://www.w3.org/2000/svg" viewBox="0 0 640 512"><!--! Font Awesome Pro 6.3.0 by @fontawesome - https://fontawesome.com License - https://fontawesome.com/license (Commercial License) Copyright 2023 Fonticons, Inc. --><path d="M488 128H412.2L466.1 232.1C480.1 226.9 496.2 224 512 224C582.7 224 640 281.3 640 352C640 422.7 582.7 480 512 480C441.3 480 384 422.7 384 352C384 308.6 405.6 270.2 438.7 247.1L423.7 218.6C380.5 247.2 352 296.3 352 352V368C352 376.8 344.8 384 336 384H304C295.2 384 288 376.8 288 368V360C288 267.2 212.8 192 120 192H48C39.16 192 32 184.8 32 176C32 167.2 39.16 160 48 160H120C161.4 160 199.9 172.6 231.8 194.1L359.2 96.1L342.3 64H272C263.2 64 256 56.84 256 48C256 39.16 263.2 32 272 32H342.3C354.2 32 365.1 38.58 370.7 49.1L384.1 76.3L436.1 36.98C440.3 33.75 445.4 32 450.7 32H488C501.3 32 512 42.75 512 56V104C512 117.3 501.3 128 488 128L488 128zM480 96V64H453.4L411.8 96H480zM257.5 214.7C294.2 249.5 317.7 297.1 319.8 352H320C320 283.1 355.4 224.2 408.7 190.1L374.4 124.8L257.5 214.7zM497.8 359.5L453.8 275.7C430.8 293.2 416 320.9 416 352C416 405 458.1 448 512 448C565 448 608 405 608 352C608 298.1 565 256 512 256C501.5 256 491.5 257.7 482.1 260.8L526.2 344.5C530.3 352.4 527.3 362 519.5 366.2C511.6 370.3 501.1 367.3 497.8 359.5V359.5zM256 352C256 422.7 198.7 480 128 480C57.31 480 0 422.7 0 352C0 281.3 57.31 224 128 224C198.7 224 256 281.3 256 352zM32 352C32 405 74.98 448 128 448C175.6 448 215.1 413.4 222.7 368H155.7C150.2 377.6 139.8 384 128 384C110.3 384 96 369.7 96 352C96 334.3 110.3 320 128 320C139.8 320 150.2 326.4 155.7 336H222.7C215.1 290.6 175.6 256 128 256C74.98 256 32 298.1 32 352z"/></svg>
